src/assets/icons/googlePlayDownloadIcon.svg

<svg width="126" height="37" viewBox="0 0 126 37" fill="none" xmlns="http://www.w3.org/2000/svg">
<g id="googlePlayDownload">
<rect x="0.5" y="0.5" width="125" height="36" rx="4.5" fill="white"/>
<rect x="0.5" y="0.5" width="125" height="36" rx="4.5" stroke="black"/>
<path id="Google Play" d="M63.5936 20.1198C61.3984 20.1198 59.6092 21.7746 59.6092 24.0538C59.6092 26.3191 61.3984 27.9878 63.5936 27.9878C65.7897 27.9878 67.5789 26.3191 67.5789 24.0538C67.578 21.7746 65.7888 20.1198 63.5936 20.1198ZM63.5936 26.4394C62.3905 26.4394 61.3536 25.4561 61.3536 24.0547C61.3536 22.6385 62.3914 21.6701 63.5936 21.6701C64.7966 21.6701 65.8336 22.6385 65.8336 24.0547C65.8336 25.4552 64.7966 26.4394 63.5936 26.4394ZM54.9005 20.1198C52.7053 20.1198 50.9161 21.7746 50.9161 24.0538C50.9161 26.3191 52.7053 27.9878 54.9005 27.9878C57.0966 27.9878 58.8859 26.3191 58.8859 24.0538C58.8859 21.7746 57.0966 20.1198 54.9005 20.1198ZM54.9005 26.4394C53.6974 26.4394 52.6605 25.4561 52.6605 24.0547C52.6605 22.6385 53.6984 21.6701 54.9005 21.6701C56.1036 21.6701 57.1405 22.6385 57.1405 24.0547C57.1414 25.4552 56.1036 26.4394 54.9005 26.4394ZM44.561 21.3278V22.9965H48.5912C48.4708 23.9354 48.1553 24.6208 47.6737 25.0972C47.0876 25.6781 46.1701 26.3191 44.561 26.3191C42.0802 26.3191 40.1408 24.3368 40.1408 21.8782C40.1408 19.4195 42.0802 17.4373 44.561 17.4373C45.8994 17.4373 46.8766 17.959 47.5981 18.6296L48.7862 17.4521C47.7782 16.4984 46.4408 15.7686 44.561 15.7686C41.1628 15.7686 38.3058 18.5103 38.3058 21.8782C38.3058 25.2461 41.1628 27.9878 44.561 27.9878C46.395 27.9878 47.7792 27.3912 48.8609 26.2738C49.9734 25.1712 50.3197 23.6209 50.3197 22.3694C50.3197 21.9827 50.2898 21.6247 50.2292 21.3269H44.561V21.3278ZM86.8485 22.6237C86.5181 21.745 85.5101 20.1198 83.4502 20.1198C81.4053 20.1198 79.7057 21.7145 79.7057 24.0538C79.7057 26.259 81.3904 27.9878 83.6453 27.9878C85.4644 27.9878 86.5172 26.8852 86.954 26.2442L85.6006 25.3497C85.1498 26.0055 84.5329 26.4375 83.6453 26.4375C82.7587 26.4375 82.1268 26.0351 81.7208 25.2452L87.0286 23.0696L86.8485 22.6237ZM81.4352 23.9354C81.3904 22.4147 82.6233 21.6405 83.5109 21.6405C84.2025 21.6405 84.7886 21.9836 84.9846 22.4748L81.4352 23.9354ZM77.1204 27.7501H78.8638V16.1867H77.1204V27.7501ZM74.2625 20.9994H74.2028C73.8117 20.5369 73.0594 20.1198 72.113 20.1198C70.1278 20.1198 68.3088 21.8486 68.3088 24.0695C68.3088 26.2747 70.1278 27.9887 72.113 27.9887C73.0604 27.9887 73.8117 27.5716 74.2028 27.0952H74.2625V27.6613C74.2625 29.1663 73.4505 29.971 72.1429 29.971C71.0752 29.971 70.4134 29.2116 70.1428 28.5706L68.6242 29.1968C69.0601 30.2393 70.2174 31.5213 72.1429 31.5213C74.1878 31.5213 75.9173 30.329 75.9173 27.4226V20.3593H74.2634V20.9994H74.2625ZM72.2633 26.4394C71.0602 26.4394 70.0532 25.4404 70.0532 24.0695C70.0532 22.6829 71.0602 21.6701 72.2633 21.6701C73.4505 21.6701 74.3829 22.6829 74.3829 24.0695C74.3829 25.4404 73.4505 26.4394 72.2633 26.4394ZM95.0189 16.1867H90.846V27.7501H92.5866V23.3693H95.018C96.9481 23.3693 98.8465 21.9846 98.8465 19.7784C98.8465 17.5723 96.949 16.1867 95.0189 16.1867ZM95.0637 21.7598H92.5866V17.7962H95.0637C96.3657 17.7962 97.1049 18.8645 97.1049 19.7784C97.1049 20.6738 96.3657 21.7598 95.0637 21.7598ZM105.827 20.0994C104.566 20.0994 103.26 20.6498 102.72 21.8699L104.265 22.509C104.596 21.8699 105.212 21.6608 105.857 21.6608C106.757 21.6608 107.673 22.1964 107.688 23.1482V23.2675C107.373 23.089 106.697 22.8217 105.872 22.8217C104.206 22.8217 102.509 23.7291 102.509 25.4246C102.509 26.9722 103.875 27.9684 105.406 27.9684C106.576 27.9684 107.222 27.4476 107.627 26.8371H107.687V27.7297H109.369V23.2962C109.37 21.2446 107.822 20.0994 105.827 20.0994ZM105.616 26.4366C105.047 26.4366 104.251 26.1535 104.251 25.4542C104.251 24.5616 105.242 24.2194 106.098 24.2194C106.862 24.2194 107.223 24.3831 107.688 24.606C107.553 25.6781 106.622 26.4366 105.616 26.4366ZM115.493 20.3519L113.497 25.3654H113.437L111.365 20.3519H109.489L112.596 27.3588L110.825 31.2568H112.641L117.43 20.3519H115.493ZM99.8078 27.7501H101.549V16.1867H99.8078V27.7501Z" fill="black"/>
<g id="Get it on">
<path d="M44.2568 9.4747C44.2568 10.2499 44.0254 10.8668 43.5615 11.3275C43.0351 11.8751 42.3482 12.1489 41.5044 12.1489C40.6962 12.1489 40.0083 11.8714 39.4436 11.3164C38.878 10.7605 38.5952 10.0723 38.5952 9.25085C38.5952 8.42853 38.878 7.74033 39.4436 7.18533C40.0083 6.6294 40.6962 6.35191 41.5044 6.35191C41.9058 6.35191 42.2894 6.4296 42.6534 6.58408C43.0183 6.73948 43.3104 6.94575 43.5288 7.20383L43.037 7.69223C42.6664 7.25285 42.1559 7.03363 41.5035 7.03363C40.9136 7.03363 40.404 7.23898 39.9738 7.64968C39.5435 8.06038 39.3288 8.5941 39.3288 9.24993C39.3288 9.90575 39.5435 10.4395 39.9738 10.8502C40.404 11.2609 40.9136 11.4662 41.5035 11.4662C42.1288 11.4662 42.6506 11.26 43.0678 10.8465C43.3384 10.5773 43.4952 10.2027 43.5372 9.7226H41.5035V9.05568H44.2167C44.2447 9.20091 44.2568 9.34058 44.2568 9.4747Z" fill="black"/>
<path d="M48.5596 7.15671H46.0097V8.91606H48.3095V9.58298H46.0097V11.3423H48.5596V12.025H45.2901V6.47498H48.5596V7.15671Z" fill="black"/>
<path d="M51.5938 12.025H50.8742V7.15671H49.3099V6.47498H53.158V7.15671H51.5938V12.025Z" fill="black"/>
<path d="M55.9421 12.025V6.47498H56.6617V12.025H55.9421Z" fill="black"/>
<path d="M59.8529 12.025H59.1333V7.15671H57.5691V6.47498H61.4172V7.15671H59.8529V12.025Z" fill="black"/>
<path d="M68.7017 11.3081C68.151 11.8686 67.4669 12.1489 66.6483 12.1489C65.8298 12.1489 65.1457 11.8686 64.5959 11.3081C64.0453 10.7475 63.7709 10.0612 63.7709 9.24997C63.7709 8.43875 64.0453 7.7524 64.5959 7.19185C65.1457 6.6313 65.8298 6.3501 66.6483 6.3501C67.4622 6.3501 68.1454 6.63222 68.6979 7.19555C69.2505 7.75887 69.5267 8.44337 69.5267 9.24997C69.5267 10.0612 69.2514 10.7475 68.7017 11.3081ZM65.127 10.8428C65.5414 11.2591 66.0482 11.4663 66.6483 11.4663C67.2485 11.4663 67.7562 11.2581 68.1697 10.8428C68.5841 10.4266 68.7922 9.89562 68.7922 9.24997C68.7922 8.60432 68.5841 8.07337 68.1697 7.65712C67.7562 7.24087 67.2485 7.03367 66.6483 7.03367C66.0482 7.03367 65.5414 7.2418 65.127 7.65712C64.7135 8.07337 64.5054 8.60432 64.5054 9.24997C64.5054 9.89562 64.7135 10.4266 65.127 10.8428Z" fill="black"/>
<path d="M70.5366 12.025V6.47498H71.4121L74.1337 10.792H74.1645L74.1337 9.72266V6.47498H74.8533V12.025H74.1019L71.2544 7.49803H71.2235L71.2544 8.56733V12.025H70.5366Z" fill="black"/>
<path d="M44.2568 9.4747C44.2568 10.2499 44.0254 10.8668 43.5615 11.3275C43.0351 11.8751 42.3482 12.1489 41.5044 12.1489C40.6962 12.1489 40.0083 11.8714 39.4436 11.3164C38.878 10.7605 38.5952 10.0723 38.5952 9.25085C38.5952 8.42853 38.878 7.74033 39.4436 7.18533C40.0083 6.6294 40.6962 6.35191 41.5044 6.35191C41.9058 6.35191 42.2894 6.4296 42.6534 6.58408C43.0183 6.73948 43.3104 6.94575 43.5288 7.20383L43.037 7.69223C42.6664 7.25285 42.1559 7.03363 41.5035 7.03363C40.9136 7.03363 40.404 7.23898 39.9738 7.64968C39.5435 8.06038 39.3288 8.5941 39.3288 9.24993C39.3288 9.90575 39.5435 10.4395 39.9738 10.8502C40.404 11.2609 40.9136 11.4662 41.5035 11.4662C42.1288 11.4662 42.6506 11.26 43.0678 10.8465C43.3384 10.5773 43.4952 10.2027 43.5372 9.7226H41.5035V9.05568H44.2167C44.2447 9.20091 44.2568 9.34058 44.2568 9.4747Z" stroke="black" stroke-width="0.2" stroke-miterlimit="10"/>
<path d="M48.5596 7.15671H46.0097V8.91606H48.3095V9.58298H46.0097V11.3423H48.5596V12.025H45.2901V6.47498H48.5596V7.15671Z" stroke="black" stroke-width="0.2" stroke-miterlimit="10"/>
<path d="M51.5938 12.025H50.8742V7.15671H49.3099V6.47498H53.158V7.15671H51.5938V12.025Z" stroke="black" stroke-width="0.2" stroke-miterlimit="10"/>
<path d="M55.9421 12.025V6.47498H56.6617V12.025H55.9421Z" stroke="black" stroke-width="0.2" stroke-miterlimit="10"/>
<path d="M59.8529 12.025H59.1333V7.15671H57.5691V6.47498H61.4172V7.15671H59.8529V12.025Z" stroke="black" stroke-width="0.2" stroke-miterlimit="10"/>
<path d="M68.7017 11.3081C68.151 11.8686 67.4669 12.1489 66.6483 12.1489C65.8298 12.1489 65.1457 11.8686 64.5959 11.3081C64.0453 10.7475 63.7709 10.0612 63.7709 9.24997C63.7709 8.43875 64.0453 7.7524 64.5959 7.19185C65.1457 6.6313 65.8298 6.3501 66.6483 6.3501C67.4622 6.3501 68.1454 6.63222 68.6979 7.19555C69.2505 7.75887 69.5267 8.44337 69.5267 9.24997C69.5267 10.0612 69.2514 10.7475 68.7017 11.3081ZM65.127 10.8428C65.5414 11.2591 66.0482 11.4663 66.6483 11.4663C67.2485 11.4663 67.7562 11.2581 68.1697 10.8428C68.5841 10.4266 68.7922 9.89562 68.7922 9.24997C68.7922 8.60432 68.5841 8.07337 68.1697 7.65712C67.7562 7.24087 67.2485 7.03367 66.6483 7.03367C66.0482 7.03367 65.5414 7.2418 65.127 7.65712C64.7135 8.07337 64.5054 8.60432 64.5054 9.24997C64.5054 9.89562 64.7135 10.4266 65.127 10.8428Z" stroke="black" stroke-width="0.2" stroke-miterlimit="10"/>
<path d="M70.5366 12.025V6.47498H71.4121L74.1337 10.792H74.1645L74.1337 9.72266V6.47498H74.8533V12.025H74.1019L71.2544 7.49803H71.2235L71.2544 8.56733V12.025H70.5366Z" stroke="black" stroke-width="0.2" stroke-miterlimit="10"/>
</g>
<g id="Google Play logo">
<path id="Subtract" fill-rule="evenodd" clip-rule="evenodd" d="M24.0993 13.1468L13.3777 6.98442C12.9716 6.74337 12.4976 6.60425 11.9905 6.60425C10.9572 6.60425 10.047 7.21684 9.59938 8.07784L9.68525 8.16293L19.4072 17.796L24.0993 13.1468ZM9.3063 9.19521C9.30565 9.21844 9.30533 9.24173 9.30533 9.26507V27.7351C9.30533 27.7584 9.30565 27.7817 9.3063 27.8049L18.6969 18.4999L9.3063 9.19521ZM9.59941 28.9222C10.0471 29.7832 10.9575 30.3959 11.9905 30.3959C12.4867 30.3959 12.9526 30.2629 13.3522 30.0295L13.3839 30.0111L24.1177 23.8712L19.4073 19.2038L9.68526 28.8372L9.59941 28.9222ZM25.0185 23.356L29.3705 20.8666C30.2127 20.416 30.7844 19.5362 30.7844 18.5216C30.7844 17.5142 30.2203 16.6387 29.3866 16.1867L29.3771 16.1802L24.9985 13.6636L20.1176 18.4999L25.0185 23.356Z" fill="black"/>
</g>
</g>
</svg>

<svg xmlns="http://www.w3.org/2000/svg" width="126" height="37" fill="none"><rect width="125" height="36" x=".5" y=".5" fill="#fff" rx="4.5"/><rect width="125" height="36" x=".5" y=".5" stroke="#000" rx="4.5"/><path fill="#000" d="M63.594 20.12c-2.196 0-3.985 1.655-3.985 3.934 0 2.265 1.79 3.934 3.985 3.934 2.196 0 3.985-1.669 3.985-3.934-.001-2.28-1.79-3.934-3.985-3.934m0 6.32c-1.203 0-2.24-.984-2.24-2.385 0-1.416 1.037-2.385 2.24-2.385s2.24.968 2.24 2.385c0 1.4-1.037 2.384-2.24 2.384M54.9 20.12c-2.196 0-3.985 1.655-3.985 3.934 0 2.265 1.79 3.934 3.985 3.934 2.196 0 3.985-1.669 3.985-3.934 0-2.28-1.79-3.934-3.986-3.934m0 6.32c-1.204 0-2.24-.984-2.24-2.385 0-1.416 1.037-2.385 2.24-2.385s2.24.968 2.24 2.385c0 1.4-1.037 2.384-2.24 2.384m-10.34-5.112v1.669h4.03c-.12.938-.436 1.624-.917 2.1-.586.581-1.504 1.222-3.113 1.222-2.48 0-4.42-1.982-4.42-4.44 0-2.46 1.94-4.442 4.42-4.442 1.338 0 2.316.522 3.037 1.193l1.188-1.178c-1.008-.954-2.345-1.683-4.225-1.683-3.398 0-6.255 2.741-6.255 6.11 0 3.367 2.857 6.109 6.255 6.109 1.834 0 3.218-.597 4.3-1.714 1.112-1.103 1.459-2.653 1.459-3.905 0-.386-.03-.744-.09-1.042H44.56m42.288 1.296c-.33-.879-1.339-2.504-3.399-2.504-2.045 0-3.744 1.595-3.744 3.934 0 2.205 1.684 3.934 3.94 3.934 1.818 0 2.871-1.103 3.308-1.744l-1.353-.894c-.451.656-1.068 1.087-1.956 1.087-.886 0-1.518-.402-1.924-1.192l5.308-2.175zm-5.414 1.311c-.045-1.52 1.188-2.294 2.076-2.294.692 0 1.278.343 1.474.834zM77.12 27.75h1.744V16.187H77.12zM74.262 21h-.06c-.39-.463-1.143-.88-2.089-.88-1.985 0-3.804 1.729-3.804 3.95 0 2.205 1.819 3.919 3.804 3.919.947 0 1.699-.417 2.09-.894h.06v.566c0 1.505-.812 2.31-2.12 2.31-1.068 0-1.73-.76-2-1.4l-1.519.626c.436 1.042 1.593 2.324 3.519 2.324 2.045 0 3.774-1.192 3.774-4.098v-7.064h-1.654V21m-1.999 5.44c-1.203 0-2.21-1-2.21-2.37 0-1.387 1.007-2.4 2.21-2.4 1.188 0 2.12 1.013 2.12 2.4 0 1.37-.932 2.37-2.12 2.37M95.02 16.186h-4.173V27.75h1.74v-4.38h2.432c1.93 0 3.829-1.385 3.829-3.592s-1.898-3.591-3.828-3.591m.045 5.573h-2.477v-3.964h2.477a2.01 2.01 0 0 1 2.04 1.982c0 .896-.738 1.982-2.04 1.982m10.763-1.66c-1.261 0-2.567.55-3.107 1.77l1.545.639c.331-.64.947-.848 1.592-.848.9 0 1.816.535 1.831 1.487v.12c-.315-.179-.991-.446-1.816-.446-1.666 0-3.363.907-3.363 2.603 0 1.547 1.366 2.543 2.897 2.543 1.17 0 1.816-.52 2.221-1.13h.06v.892h1.682v-4.434c.001-2.051-1.547-3.197-3.542-3.197m-.211 6.337c-.569 0-1.365-.284-1.365-.983 0-.892.991-1.235 1.847-1.235.764 0 1.125.164 1.59.387a2.105 2.105 0 0 1-2.072 1.83m9.877-6.085-1.996 5.013h-.06l-2.072-5.013h-1.876l3.107 7.007-1.771 3.898h1.816l4.789-10.905zM99.808 27.75h1.741V16.187h-1.741zM44.257 9.475q0 1.162-.695 1.853-.791.82-2.058.82-1.213 0-2.06-.832-.849-.834-.849-2.065 0-1.232.849-2.066.847-.834 2.06-.833.603 0 1.15.232.546.233.875.62l-.492.488q-.555-.659-1.533-.658-.885 0-1.53.616t-.645 1.6.645 1.6q.645.615 1.53.616.938 0 1.564-.62.405-.403.47-1.123h-2.034v-.667h2.713q.041.218.04.419M48.56 7.157h-2.55v1.76h2.3v.666h-2.3v1.76h2.55v.682h-3.27v-5.55h3.27zM51.594 12.025h-.72V7.157H49.31v-.682h3.848v.682h-1.564zM55.942 12.025v-5.55h.72v5.55zM59.853 12.025h-.72V7.157H57.57v-.682h3.848v.682h-1.564zM68.702 11.308q-.826.84-2.054.84t-2.052-.84q-.825-.84-.825-2.058t.825-2.058q.825-.841 2.052-.842 1.22 0 2.05.846.83.844.829 2.054 0 1.217-.825 2.058m-3.575-.465q.621.624 1.521.623.9 0 1.522-.623.621-.624.622-1.593 0-.969-.622-1.593a2.06 2.06 0 0 0-1.522-.623q-.9 0-1.521.623-.62.624-.622 1.593.001.969.622 1.593M70.537 12.025v-5.55h.875l2.722 4.317h.03l-.03-1.07V6.476h.72v5.55h-.752l-2.848-4.527h-.03l.03 1.07v3.457z"/><path stroke="#000" stroke-miterlimit="10" stroke-width=".2" d="M44.257 9.475q0 1.162-.695 1.853-.791.82-2.058.82-1.213 0-2.06-.832-.849-.834-.849-2.065 0-1.232.849-2.066.847-.834 2.06-.833.603 0 1.15.232.546.233.875.62l-.492.488q-.555-.659-1.533-.658-.885 0-1.53.616t-.645 1.6.645 1.6q.645.615 1.53.616.938 0 1.564-.62.405-.403.47-1.123h-2.034v-.667h2.713q.041.218.04.419ZM48.56 7.157h-2.55v1.76h2.3v.666h-2.3v1.76h2.55v.682h-3.27v-5.55h3.27zM51.594 12.025h-.72V7.157H49.31v-.682h3.848v.682h-1.564zM55.942 12.025v-5.55h.72v5.55zM59.853 12.025h-.72V7.157H57.57v-.682h3.848v.682h-1.564zM68.702 11.308q-.826.84-2.054.84t-2.052-.84q-.825-.84-.825-2.058t.825-2.058q.825-.841 2.052-.842 1.22 0 2.05.846.83.844.829 2.054 0 1.217-.825 2.058Zm-3.575-.465q.621.624 1.521.623.9 0 1.522-.623.621-.624.622-1.593 0-.969-.622-1.593a2.06 2.06 0 0 0-1.522-.623q-.9 0-1.521.623-.62.624-.622 1.593.001.969.622 1.593ZM70.537 12.025v-5.55h.875l2.722 4.317h.03l-.03-1.07V6.476h.72v5.55h-.752l-2.848-4.527h-.03l.03 1.07v3.457z"/><path fill="#000" fill-rule="evenodd" d="M24.1 13.147 13.377 6.984a2.7 2.7 0 0 0-1.387-.38c-1.034 0-1.944.613-2.392 1.474l.086.085 9.722 9.633zM9.305 9.195v18.61l9.39-9.305zM9.6 28.922c.448.861 1.358 1.474 2.392 1.474.496 0 .962-.133 1.361-.367l.032-.018 10.734-6.14-4.71-4.667-9.723 9.633zm15.42-5.566 4.352-2.49a2.66 2.66 0 0 0 1.413-2.344 2.65 2.65 0 0 0-1.397-2.335l-.01-.007L25 13.664 20.118 18.5z" clip-rule="evenodd"/></svg>
